packages/core/src/svgs/tokens/branded/FEVR.svg

<svg width="24" height="24" viewBox="0 0 24 24" fill="none" xmlns="http://www.w3.org/2000/svg">
<path d="M12.4001 3.11108H2.74074C2.54429 3.11108 2.35588 3.18912 2.21697 3.32803C2.07804 3.46696 2 3.65536 2 3.85182V20.1481C2 20.3447 2.07804 20.5331 2.21697 20.672C2.35588 20.8108 2.54429 20.8889 2.74074 20.8889H6.44446V14.9629H9.27413L10.4444 10.5185H6.44446V7.55555H11.2296L12.4001 3.11108ZM12.6001 10.5185H15.1483C15.5411 10.5185 15.9179 10.3625 16.1957 10.0845C16.4736 9.80677 16.6297 9.42998 16.6297 9.03694C16.6297 8.64408 16.4736 8.26728 16.1957 7.98946C15.9179 7.71162 15.5411 7.55555 15.1483 7.55555H13.3853L14.5556 3.11108H14.9853C16.2506 3.11124 17.4828 3.51648 18.5012 4.26744C19.5197 5.01841 20.2711 6.07567 20.6453 7.28448C21.0195 8.49329 20.997 9.79018 20.581 10.9852C20.165 12.1802 19.3773 13.2109 18.3334 13.9259L22 20.8889H17.0445L13.9185 14.9629H11.4296L12.6001 10.5185Z" fill="url(#paint0_linear_364_2829)"/>
<defs>
<linearGradient id="paint0_linear_364_2829" x1="5.92859" y1="5.49204" x2="16.2218" y2="20.0102" gradientUnits="userSpaceOnUse">
<stop stop-color="#E752F5"/>
<stop offset="0.48" stop-color="#5C0CA9"/>
<stop offset="1" stop-color="#44019C"/>
</linearGradient>
</defs>
</svg>

<svg xmlns="http://www.w3.org/2000/svg" width="24" height="24" fill="none" viewBox="0 0 24 24">
    <path fill="url(#FEVR__a)" d="M12.4 3.111H2.74a.74.74 0 0 0-.74.74v16.297a.74.74 0 0 0 .74.74h3.704v-5.925h2.83l1.17-4.444h-4V7.555h4.786zm.2 7.408h2.548a1.48 1.48 0 1 0 0-2.963h-1.763l1.17-4.445h.43a5.926 5.926 0 0 1 3.348 10.815L22 20.889h-4.956l-3.126-5.926H11.43z"/>
    <defs>
        <linearGradient id="FEVR__a" x1="5.929" x2="16.222" y1="5.492" y2="20.01" gradientUnits="userSpaceOnUse">
            <stop stop-color="#E752F5"/>
            <stop offset=".48" stop-color="#5C0CA9"/>
            <stop offset="1" stop-color="#44019C"/>
        </linearGradient>
    </defs>
</svg>
